SimpleWeather.Shared/Resources/Images/WeatherIcons/svg/light/ic_outline_tree.svg

<?xml version="1.0" encoding="UTF-8" standalone="no"?>
<svg viewBox="0 0 192 192" id="vector" version="1.1" width="192" height="192" xmlns="http://www.w3.org/2000/svg" xmlns:svg="http://www.w3.org/2000/svg">
  <defs id="defs1" />
  <g id="group" transform="matrix(6.4,0,0,6.4,18.88,19.2)" style="fill:#000000">
    <path id="path" d="m 17,12 h 2 L 12,2 5.05,12 H 7 l -3.9,6 h 6.92 v 4 h 3.95 V 18 H 21 Z m -10.21,4 3.9,-6 H 8.88 l 3.13,-4.5 3.15,4.5 h -1.9 l 4,6 z" fill="#ffffff" style="fill:#000000" />
  </g>
</svg>

<svg
    xmlns="http://www.w3.org/2000/svg"
    viewBox="0 0 24 24"
    id="vector">
    <g
        id="group"
        transform="translate(2.5 2.5) scale(0.8 0.8)">
        <path
            id="path"
            d="M 17 12 L 19 12 L 12 2 L 5.05 12 L 7 12 L 3.1 18 L 10.02 18 L 10.02 22 L 13.97 22 L 13.97 18 L 21 18 L 17 12 Z M 6.79 16 L 10.69 10 L 8.88 10 L 12.01 5.5 L 15.16 10 L 13.26 10 L 17.26 16 L 6.79 16 Z"
            fill="#000000"/>
    </g>
</svg>
